!!!COM: Palestrina, Giovanni Perluigi da
!!!OPR: In semidupl. maj. (II)
!!!OTL: Gloria
**kern	**kern	**kern	**kern	**kern
*Ibass	*Itenor	*Itenor	*Icalto	*Icant
!Bassus	!Tenor 2	!Tenor 1	!Altus	!Cantus
*clefF4	*clefGv2	*clefGv2	*clefG2	*clefG2
*k[b-]	*k[b-]	*k[b-]	*k[b-]	*k[b-]
*F:ion	*F:ion	*F:ion	*F:ion	*F:ion
*M4/2	*M4/2	*M4/2	*M4/2	*M4/2
=1	=1	=1	=1	=1
0r	0r	0r	1r	1.f
.	.	.	1B-	.
.	.	.	.	2g
=2	=2	=2	=2	=2
0r	0r	0r	2c	1a
.	.	.	1d	.
.	.	.	.	2f
.	.	.	2B-	[2b-
=3	=3	=3	=3	=3
0r	0r	1r	1.f	2b-]
.	.	.	.	4a
.	.	.	.	4g
.	.	[1F	.	4a
.	.	.	.	4b-
.	.	.	2e	[2cc
=4	=4	=4	=4	=4
0r	0r	2F]	1d	2cc]
.	.	2G	.	2b
.	.	1A	2c	2.cc
.	.	.	2e	.
.	.	.	.	4b-
=5	=5	=5	=5	=5
1r	0r	2F	2f	4a
.	.	.	.	4g
.	.	1B-	1d	4f
.	.	.	.	4e
[1BB-	.	.	.	4d
.	.	.	.	4e
.	.	2A	2d	[2f
=6	=6	=6	=6	=6
2BB-]	1r	1G	2d	2f]
2C	.	.	4c	2e
.	.	.	4B-	.
1D	2r	2.F	1A	1f
.	[2F	.	.	.
.	.	4E	.	.
=7	=7	=7	=7	=7
1BB-	2F]	1D	1d	1b-
.	2G	.	.	.
2.F	1A	2r	1c	2a
.	.	[2A	.	[2f
4E-	.	.	.	.
=8	=8	=8	=8	=8
4D	2F	2A]	1d	2f]
4C	.	.	.	.
4BB-	1B-	2D	.	2f
4AA	.	.	.	.
2GG	.	2d	2B-	2g
2AA	2A	2c	2c	[2f
=9	=9	=9	=9	=9
1BB-	0G	2.B-	1d	2f]
.	.	.	.	4e
.	.	4A	.	4d
1C	.	1G	1c	1e
=10	=10	=10	=10	=10
[0FF	[0F	[0A	[0c	[0f
=11	=11	=11	=11	=11
0FF]	0F]	0A]	0c]	0f]
!! Benedicimus te
*Ibass	*Itenor	*Itenor	*Icalto	*Icant
!Bassus	!Tenor 2	!Tenor 1	!Altus	!Cantus
*clefF4	*clefGv2	*clefGv2	*clefG2	*clefG2
*k[b-]	*k[b-]	*k[b-]	*k[b-]	*k[b-]
*F:ion	*F:ion	*F:ion	*F:ion	*F:ion
*M4/2	*M4/2	*M4/2	*M4/2	*M4/2
=12	=12	=12	=12	=12
0r	0r	0r	1c	1cc
.	.	.	2d	2a
.	.	.	4B-	[2b-
.	.	.	4c	.
=13	=13	=13	=13	=13
0r	0r	0r	4d	2b-]
.	.	.	4e	.
.	.	.	2f	4a
.	.	.	.	4g
.	.	.	2F	1a
.	.	.	[2f	.
=14	=14	=14	=14	=14
1C	0r	1c	2f]	2g
.	.	.	2e	2g
2D	.	2A	[1f	4f
.	.	.	.	4e
4BB-	.	[2B-	.	4d
4C	.	.	.	4e
=15	=15	=15	=15	=15
4D	0r	2B-]	1f]	4f
4E	.	.	.	4g
2F	.	4A	.	4a
.	.	4G	.	4b-
2FF	.	1A	2r	1cc
[2F	.	.	2c	.
=16	=16	=16	=16	=16
2F]	1r	2G	2d	2r
2E	.	2G	1c	2g
2F	1c	2F	.	2a
[2F	.	2c	2A	2f
=17	=17	=17	=17	=17
2F]	2A	2c	1F	2f
2BB-	1B-	1d	.	4d
.	.	.	.	4e
2.D	.	.	2r	4f
.	.	.	.	4g
.	4A	2d	[2F	[2a
4E	4G	.	.	.
=18	=18	=18	=18	=18
2F	1A	2c	4F]	4a]
.	.	.	4G	4g
2F	.	2.c	4A	1f
.	.	.	4B-	.
1C	2G	.	1c	.
.	.	4B-	.	.
.	2G	2G	.	2e
=19	=19	=19	=19	=19
[0FF	[0F	[0A	[0c	[0f
=20	=20	=20	=20	=20
0FF]	0F]	0A]	0c]	0f]
!! Glorificamus te
*Ibass	*Itenor	*Itenor	*Icalto	*Icant
!Bassus	!Tenor 2	!Tenor 1	!Altus	!Cantus
*clefF4	*clefGv2	*clefGv2	*clefG2	*clefG2
*k[b-]	*k[b-]	*k[b-]	*k[b-]	*k[b-]
*F:ion	*F:ion	*F:ion	*F:ion	*F:ion
*M4/2	*M4/2	*M4/2	*M4/2	*M4/2
=21	=21	=21	=21	=21
0r	0r	0r	1g	0r
.	.	.	2e	.
.	.	.	2f	.
=22	=22	=22	=22	=22
0r	0r	1c	4e	1cc
.	.	.	4f	.
.	.	.	4g	.
.	.	.	4e	.
.	.	2d	2f	2a
.	.	2B-	[2g	2b-
=23	=23	=23	=23	=23
1r	1r	2d	4g]	2a
.	.	.	4f	.
.	.	2d	1f	4g
.	.	.	.	4f
1C	2r	1c	.	2g
.	2c	.	2e	2g
=24	=24	=24	=24	=24
2D	2A	2r	2.d	1f
2BB-	2B-	2d	.	.
.	.	.	4e	.
2D	2A	2d	[1f	2r
2D	4G	2B-	.	2f
.	4F	.	.	.
=25	=25	=25	=25	=25
0C	1G	1.c	2f]	2.cc
.	.	.	4e	.
.	.	.	4d	4cc
.	1G	.	1e	2cc
.	.	2c	.	2g
=26	=26	=26	=26	=26
[0FF	[0F	[0c	[0f	[0a
=27	=27	=27	=27	=27
0FF]	0F]	0c]	0f]	0a]
!! Domine Deus Rex
*Ibass	*Itenor	*Itenor	*Icalto	*Icant
!Bassus	!Tenor 2	!Tenor 1	!Altus	!Cantus
*clefF4	*clefGv2	*clefGv2	*clefG2	*clefG2
*k[b-]	*k[b-]	*k[b-]	*k[b-]	*k[b-]
*F:ion	*F:ion	*F:ion	*F:ion	*F:ion
*M4/2	*M4/2	*M4/2	*M4/2	*M4/2
=28	=28	=28	=28	=28
0r	0r	0r	1r	1f
.	.	.	1c	2.cc
.	.	.	.	4cc
=29	=29	=29	=29	=29
0r	0r	0r	2.f	2cc
.	.	.	.	2.cc
.	.	.	4f	.
.	.	.	2f	.
.	.	.	.	4b-
.	.	.	[2f	4a
.	.	.	.	4g
=30	=30	=30	=30	=30
0r	0r	0r	2f]	2a
.	.	.	2e	2g
.	.	.	2d	2f
.	.	.	[2c	2g
=31	=31	=31	=31	=31
1r	0r	1F	2c]	1a
.	.	.	2.f	.
1C	.	2.c	.	1g
.	.	.	8e	.
.	.	.	8d	.
.	.	.	2e	.
.	.	4c	.	.
=32	=32	=32	=32	=32
2.F	0r	2c	1f	0a
.	.	2.c	.	.
4F	.	.	.	.
2F	.	.	[1c	.
.	.	4B-	.	.
[2F	.	4A	.	.
.	.	4G	.	.
=33	=33	=33	=33	=33
2F]	1r	2A	1c]	0r
2E	.	2G	.	.
2D	2r	2F	1r	.
2C	[2c	2E	.	.
=34	=34	=34	=34	=34
1D	2c]	1F	2r	0r
.	2B-	.	1f	.
1C	1c	1G	.	.
.	.	.	2e	.
=35	=35	=35	=35	=35
0r	2A	1F	1f	1r
.	2F	.	.	.
.	1G	1r	2d	2r
.	.	.	2B-	[2g
=36	=36	=36	=36	=36
0r	1A	2r	1c	2g]
.	.	1c	.	2f
.	1G	.	1d	1g
.	.	2B-	.	.
=37	=37	=37	=37	=37
0r	2r	2c	1c	2e
.	1c	2A	.	2c
.	.	2F	1r	1d
.	2B-	2G	.	.
=38	=38	=38	=38	=38
0r	2c	2C	1r	1e
.	2A	2.c	.	.
.	2F	.	2r	1d
.	.	8B	.	.
.	.	8A	.	.
.	2G	2B	2g	.
=39	=39	=39	=39	=39
2r	1A	1c	2e	[0c
1F	.	.	2f	.
.	1G	2r	2g	.
2E	.	[2c	2G	.
=40	=40	=40	=40	=40
1F	0F	2c]	4A	1c]
.	.	.	4B-	.
.	.	2A	4c	.
.	.	.	4A	.
2D	.	1d	2.B-	2r
2BB-	.	.	.	[2f
.	.	.	4A	.
=41	=41	=41	=41	=41
1C	2r	2.c	2G	2f]
.	1c	.	2G	2e
.	.	4B-	.	.
1D	.	4A	1F	2f
.	.	4G	.	.
.	2B-	2F	.	2d
=42	=42	=42	=42	=42
1C	1c	2G	2r	2e
.	.	2E	2c	2.g
1FF	2A	2F	[1c	.
.	.	.	.	4f
.	2F	2A	.	[2f
=43	=43	=43	=43	=43
1.C	2.G	4G	1c]	2f]
.	.	4C	.	.
.	.	2.c	.	4e
.	4A	.	.	4d
.	2G	.	1c	2e
.	.	4B-	.	.
2C	2G	2G	.	2e
=44	=44	=44	=44	=44
[0FF	[0F	[0A	[0c	[0f
=45	=45	=45	=45	=45
0FF]	0F]	0A]	0c]	0f]
!! Domine Deus Agnus
*Ibass	*Itenor	*Itenor	*Icalto	*Icant
!Bassus	!Tenor 2	!Tenor 1	!Altus	!Cantus
*clefF4	*clefGv2	*clefGv2	*clefG2	*clefG2
*k[b-]	*k[b-]	*k[b-]	*k[b-]	*k[b-]
*F:ion	*F:ion	*F:ion	*F:ion	*F:ion
*M4/2	*M4/2	*M4/2	*M4/2	*M4/2
=46	=46	=46	=46	=46
0r	0r	0r	1r	1f
.	.	.	2.c	[1cc
.	.	.	4d	.
=47	=47	=47	=47	=47
0r	0r	1r	4e	2cc]
.	.	.	4f	.
.	.	.	2g	2b-
.	.	1F	2c	1a
.	.	.	[2f	.
=48	=48	=48	=48	=48
0r	2.C	1.c	2f]	0g
.	.	.	1e	.
.	4D	.	.	.
.	4E	.	.	.
.	4F	.	.	.
.	2G	2B-	2d	.
=49	=49	=49	=49	=49
1FF	2C	1A	0c	1f
.	1F	.	.	.
[1C	.	[1G	.	1r
.	4E	.	.	.
.	4D	.	.	.
=50	=50	=50	=50	=50
2C]	4E	1G]	2r	1g
.	4F	.	.	.
2BB-	2.G	.	2d	.
1AA	.	1A	2c	1cc
.	4F	.	.	.
.	[2F	.	2c	.
=51	=51	=51	=51	=51
1GG	2F]	1B-	1g	2b-
.	2E	.	.	2g
2FF	[1F	2.A	1c	1a
[2F	.	.	.	.
.	.	4B-	.	.
=52	=52	=52	=52	=52
2F]	1F]	2c	1f	2a
2D	.	2d	.	1a
1F	1r	1A	2c	.
.	.	.	[2f	2a
=53	=53	=53	=53	=53
1C	2r	1c	2f]	2.g
.	1c	.	4e	.
.	.	.	4d	4f
1r	.	1r	2e	2g
.	2A	.	[2f	[2a
=54	=54	=54	=54	=54
0r	1c	1r	4f]	4a]
.	.	.	4e	4g
.	.	.	2e	1cc
.	1G	2r	1d	.
.	.	[2G	.	2b
=55	=55	=55	=55	=55
1C	2r	2G]	1e	1cc
.	2c	2A	.	.
2D	2F	2B-	1r	1r
2E	2G	[2c	.	.
=56	=56	=56	=56	=56
1.F	2.A	4c]	1c	1r
.	.	4B-	.	.
.	.	1A	.	.
.	4G	.	.	.
.	2F	.	2d	2r
2E	2C	2G	2e	2g
=57	=57	=57	=57	=57
1D	2r	1F	1.f	2a
.	2F	.	.	2b-
1C	2G	1r	.	1cc
.	2A	.	2e	.
=58	=58	=58	=58	=58
1BB-	1.B-	2r	1d	1f
.	.	2F	.	.
2GG	.	2G	2e	2r
2FF	2A	2A	[2f	2cc
=59	=59	=59	=59	=59
1BB-	0G	2.B-	2f]	2b-
.	.	.	4e	2dd
.	.	4A	4d	.
1C	.	2G	1e	1cc
.	.	2c	.	.
=60	=60	=60	=60	=60
[0FF	[0F	[0c	[0f	[0a
=61	=61	=61	=61	=61
0FF]	0F]	0c]	0f]	0a]
!! Qui tollis
*Ibass	*Itenor	*Itenor	*Icalto	*Icant
!Bassus	!Tenor 2	!Tenor 1	!Altus	!Cantus
*clefF4	*clefGv2	*clefGv2	*clefG2	*clefG2
*k[b-]	*k[b-]	*k[b-]	*k[b-]	*k[b-]
*F:ion	*F:ion	*F:ion	*F:ion	*F:ion
*M4/2	*M4/2	*M4/2	*M4/2	*M4/2
=62	=62	=62	=62	=62
0r	1.F	0r	1r	0r
.	.	.	[1c	.
.	4E	.	.	.
.	4D	.	.	.
=63	=63	=63	=63	=63
0r	2E	0r	2c]	0r
.	2F	.	4B-	.
.	.	.	4A	.
.	2D	.	2B-	.
.	2C	.	2c	.
=64	=64	=64	=64	=64
0r	2F	1r	2A	0r
.	2G	.	2G	.
.	[1A	[1F	2.c	.
.	.	.	4B-	.
=65	=65	=65	=65	=65
0r	2A]	2F]	2c	0r
.	4G	4E	2.d	.
.	4F	4D	.	.
.	2G	2E	.	.
.	.	.	4c	.
.	[2A	2F	4c	.
.	.	.	8d	.
.	.	.	8e	.
=66	=66	=66	=66	=66
0r	4A]	2D	2f	0r
.	4B-	.	.	.
.	1c	2C	2e	.
.	.	2F	1d	.
.	2B	2G	.	.
=67	=67	=67	=67	=67
0r	1c	2A	2c	2r
.	.	2F	2A	1f
.	1r	1B-	1d	.
.	.	.	.	4e
.	.	.	.	4d
=68	=68	=68	=68	=68
0r	2r	1A	2.c	2e
.	2F	.	.	2f
.	.	.	4A	.
.	2G	1r	2B-	2d
.	2A	.	2c	2c
=69	=69	=69	=69	=69
0r	1B-	2r	2.d	2f
.	.	2G	.	2g
.	.	.	4e	.
.	2c	2F	[1f	2.a
.	2d	4D	.	.
.	.	4E	.	4g
=70	=70	=70	=70	=70
0r	2.c	4F	2f]	4a
.	.	4G	.	4b-
.	.	2A	2e	1cc
.	4A	.	.	.
.	1d	1G	2g	.
.	.	.	[2g	2b
=71	=71	=71	=71	=71
1.C	0c	1G	2g]	1cc
.	.	.	2f	.
.	.	1r	2e	[1cc
2BB-	.	.	2d	.
=72	=72	=72	=72	=72
2AA	1r	1.c	2c	2cc]
2GG	.	.	4d	2b-
.	.	.	4e	.
[1FF	[1c	.	[1f	2a
.	.	2B-	.	2g
=73	=73	=73	=73	=73
0FF]	2c]	2A	1f]	2f
.	2B-	2G	.	2g
.	2A	2.F	2r	[1a
.	2G	.	2c	.
.	.	4E	.	.
=74	=74	=74	=74	=74
1r	2F	1D	2d	2a]
.	2F	.	1f	2b-
2r	1G	1C	.	1cc
2C	.	.	2e	.
=75	=75	=75	=75	=75
2D	2B-	1F	2d	0r
1F	2A	.	1c	.
.	2.c	2A	.	.
2E	.	[2c	[2g	.
.	4d	.	.	.
=76	=76	=76	=76	=76
1G	2e	2c]	2g]	0r
.	1d	2B-	2G	.
2F	.	2A	2r	.
2E	[2c	2G	2c	.
=77	=77	=77	=77	=77
1D	4c]	2F	2d	1f
.	4B	.	.	.
.	4B	2F	1f	.
.	4A	.	.	.
1C	2c	2r	.	1g
.	2C	2c	2e	.
=78	=78	=78	=78	=78
2GG	4D	2B-	2g	2b-
.	4E	.	.	.
2D	4F	2d	2.f	2a
.	4G	.	.	.
2AA	2.A	1c	.	1cc
.	.	.	4e	.
2AA	.	.	2e	.
.	4G	.	.	.
=79	=79	=79	=79	=79
2BB-	1F	2d	4d	2b-
.	.	.	4e	.
2FF	.	2c	1f	2a
1C	1G	1c	.	1g
.	.	.	2e	.
=80	=80	=80	=80	=80
[0FF	[0F	[0c	[0f	[0a
=81	=81	=81	=81	=81
0FF]	0F]	0c]	0f]	0a]
!! Quoniam
*Ibass	*Itenor	*Itenor	*Icalto	*Icant
!Bassus	!Tenor 2	!Tenor 1	!Altus	!Cantus
*clefF4	*clefGv2	*clefGv2	*clefG2	*clefG2
*k[b-]	*k[b-]	*k[b-]	*k[b-]	*k[b-]
*F:ion	*F:ion	*F:ion	*F:ion	*F:ion
*M4/2	*M4/2	*M4/2	*M4/2	*M4/2
=82	=82	=82	=82	=82
0r	0r	0r	1r	1f
.	.	.	1c	2g
.	.	.	.	2a
=83	=83	=83	=83	=83
0r	0r	0r	2d	2f
.	.	.	2e	2.cc
.	.	.	2c	.
.	.	.	.	4b-
.	.	.	[2f	4a
.	.	.	.	4g
=84	=84	=84	=84	=84
0r	0r	1r	2f]	2a
.	.	.	2e	2g
.	.	[1F	2d	2.f
.	.	.	[2c	.
.	.	.	.	4e
=85	=85	=85	=85	=85
1r	0r	2F]	2c]	2.d
.	.	2G	2B-	.
.	.	.	.	4e
[1FF	.	2A	2.c	4f
.	.	.	.	4g
.	.	2F	.	[2a
.	.	.	4B-	.
=86	=86	=86	=86	=86
2FF]	0r	2c	2A	2a]
2GG	.	2B-	2d	2.g
2AA	.	1A	1c	.
.	.	.	.	4f
2FF	.	.	.	[2f
=87	=87	=87	=87	=87
2.C	2r	1G	2r	2f]
.	1C	.	1c	4e
4BB-	.	.	.	4d
2AA	.	2r	.	4e
.	.	.	.	4f
2GG	2D	[2G	2B-	[2g
=88	=88	=88	=88	=88
1C	2E	2G]	2c	4g]
.	.	.	.	4f
.	2C	2A	2c	2e
1BB-	1F	2B-	4d	1d
.	.	.	4c	.
.	.	[2d	4B-	.
.	.	.	4A	.
=89	=89	=89	=89	=89
1C	1E	4d]	2G	2.e
.	.	4c	.	.
.	.	1c	2G	.
.	.	.	.	4f
1GG	1D	.	1G	1g
.	.	2B	.	.
=90	=90	=90	=90	=90
[0C	[0C	[0c	[0G	[0e
=91	=91	=91	=91	=91
0C]	0C]	0c]	0G]	0e]
!! Tu solus Altissimus
*Ibass	*Itenor	*Itenor	*Icalto	*Icant
!Bassus	!Tenor 2	!Tenor 1	!Altus	!Cantus
*clefF4	*clefGv2	*clefGv2	*clefG2	*clefG2
*k[b-]	*k[b-]	*k[b-]	*k[b-]	*k[b-]
*F:ion	*F:ion	*F:ion	*F:ion	*F:ion
*M4/2	*M4/2	*M4/2	*M4/2	*M4/2
=92	=92	=92	=92	=92
0r	0r	0r	1B-	1r
.	.	.	1B-	1f
=93	=93	=93	=93	=93
0r	0r	0r	2F	1f
.	.	.	2.f	.
.	.	.	.	2c
.	.	.	4e	.
.	.	.	2e	2c
=94	=94	=94	=94	=94
0r	0r	1B-	2.d	1.f
.	.	.	8c	.
.	.	.	8B-	.
.	.	1B-	4d	.
.	.	.	4c	.
.	.	.	4d	2g
.	.	.	4e	.
=95	=95	=95	=95	=95
0r	0r	2F	4f	4a
.	.	.	4g	4b-
.	.	2F	4a	4cc
.	.	.	4f	4a
.	.	[1B-	4g	4b-
.	.	.	4f	4a
.	.	.	[2f	4g
.	.	.	.	4f
=96	=96	=96	=96	=96
1r	0r	2B-]	2f]	1g
.	.	2c	2e	.
1BB-	.	1d	2f	1f
.	.	.	2B-	.
=97	=97	=97	=97	=97
1BB-	1F	1B-	1d	2r
.	.	.	.	2f
2FF	1F	2A	2c	1a
[2F	.	2F	2A	.
=98	=98	=98	=98	=98
4F]	2C	1G	2c	2g
4E	.	.	.	.
2E	2C	.	2c	2g
2.D	[1F	2A	1d	1f
.	.	2D	.	.
4C	.	.	.	.
=99	=99	=99	=99	=99
2BB-	2F]	2F	2r	1d
2BB-	2G	4E	1d	.
.	.	4D	.	.
1AA	1A	1E	.	1a
.	.	.	2c	.
=100	=100	=100	=100	=100
1D	0A	4D	1f	2r
.	.	4E	.	.
.	.	4F	.	1d
.	.	4D	.	.
1AA	.	2E	1e	.
.	.	2A	.	2c
=101	=101	=101	=101	=101
1BB	0G	1D	2r	1d
.	.	.	2.d	.
1C	.	4G	.	1e
.	.	4C	4c	.
.	.	4c	[2c	.
.	.	4B-	.	.
=102	=102	=102	=102	=102
0D	0F	4A	2c]	1.f
.	.	4G	.	.
.	.	4F	4B-	.
.	.	4E	4A	.
.	.	4D	1B-	.
.	.	4E	.	.
.	.	2F	.	2d
=103	=103	=103	=103	=103
0C	0G	4E	[0c	2e
.	.	4C	.	.
.	.	2.c	.	1f
.	.	4B-	.	.
.	.	2G	.	2e
=104	=104	=104	=104	=104
[0FF	[0F	[0A	1c_	[0f
.	.	.	1c_	.
=105	=105	=105	=105	=105
0FF]	0F]	0A]	0c]	0f]
!! Amen
*Ibass	*Itenor	*Itenor	*Icalto	*Icant
!Bassus	!Tenor 2	!Tenor 1	!Altus	!Cantus
*clefF4	*clefGv2	*clefGv2	*clefG2	*clefG2
*k[b-]	*k[b-]	*k[b-]	*k[b-]	*k[b-]
*F:ion	*F:ion	*F:ion	*F:ion	*F:ion
*M4/2	*M4/2	*M4/2	*M4/2	*M4/2
=106	=106	=106	=106	=106
0r	0r	0r	2r	1f
.	.	.	1f	.
.	.	.	.	2.g
.	.	.	2e	.
.	.	.	.	4a
=107	=107	=107	=107	=107
2r	0r	0r	2d	2b-
1F	.	.	2c	1a
.	.	.	2d	.
2E	.	.	2e	2g
=108	=108	=108	=108	=108
2D	0r	0r	2f	2f
2C	.	.	2.g	2e
1D	.	.	.	1f
.	.	.	4f	.
.	.	.	[2f	.
=109	=109	=109	=109	=109
1C	1r	1r	2f]	1g
.	.	.	2e	.
1FF	1F	2r	2f	2f
.	.	[2F	[2c	2a
=110	=110	=110	=110	=110
1C	2.G	2F]	4c]	1g
.	.	.	4d	.
.	.	2E	4e	.
.	4A	.	4c	.
2r	2B-	1D	1d	1f
[2F	[2A	.	.	.
=111	=111	=111	=111	=111
2F]	2A]	1C	2r	1cc
2E	2G	.	2G	.
2D	2F	2r	2B-	2b-
2C	2E	2C	2c	[2a
=112	=112	=112	=112	=112
1D	1F	2F	2A	4a]
.	.	.	.	4g
.	.	2D	2B-	1f
1C	1G	4E	2c	.
.	.	4C	.	.
.	.	[2c	2G	2e
=113	=113	=113	=113	=113
[0FF	[0F	4c]	2.A	[0f
.	.	4B-	.	.
.	.	4A	.	.
.	.	4G	4B-	.
.	.	1A	1c	.
=114	=114	=114	=114	=114
1FF_	1F_	[0A	[0c	1f_
1FF_	1F_	.	.	1f_
=115	=115	=115	=115	=115
0FF]	0F]	0A]	0c]	0f]
==	==	==	==	==
*-	*-	*-	*-	*-
!!!CDT: 1525/^1526/-1594/2/2
!!!OCY: Italia
!!!AGN: Mass (Paraphrase)
!!!AST: renaissance, vocal
!!!ASW: Gregorian Mass
!!!PWK: Masses, Book Mantuan II
!!!RNB: Cadence finals: C
!!!YOR: Le Opere Complete, v. 19, p. 87
!!!YOO: Rome, Italy: Fratelli Scalera
!!!END: 1992//
!!!EED: John Miller
!!!YEC: Copyright 2000, John Miller
!!!YEN: United States of America
!!!YEM: Rights to all derivative electronic formats reserved.
!!!YEM: Refer to licensing agreement for further details.
!!!YEM: This file must be accompanied by the licensing agreement.
!!!YEM: A copy of the licensing agreement may be found at http://www.music-cog.ohio-state.edu/HumdrumDatabases/Palestrina/license.txt
!!!EMD: converted to Humdrum by Bret Aarden
